assets/icons/pc_specs/mouse.svg

<svg width="32" height="32" viewBox="0 0 32 32" fill="none" xmlns="http://www.w3.org/2000/svg">
<path d="M29.58 0C29.58 3.8363 29.5789 2.84705 29.58 3.01489C29.6226 6.04048 25.2868 7.61093 23.8013 8.05975L22.4499 6.70836C19.5485 3.80691 14.8274 3.80684 11.9258 6.70836L2.7282 15.9059C-0.179951 18.814 -0.180514 23.5215 2.7282 26.4301L6.1168 29.8187C9.02483 32.7268 13.7324 32.7273 16.641 29.8187L25.8386 20.6211C28.7401 17.7196 28.7401 12.9984 25.8386 10.097L25.2857 9.54403C27.5553 8.71412 31.5034 6.732 31.4561 2.9957V0L29.58 0ZM13.2523 8.03492C15.422 5.86526 18.953 5.86451 21.1234 8.03492L22.1986 9.11016L18.8182 12.4906C17.7521 11.9603 16.3937 12.0852 15.3787 13.1L11.7267 9.56054L13.2523 8.03492ZM18.2631 15.8757L17.2018 16.937C17.0011 17.1378 16.7341 17.2483 16.4501 17.2483C15.5052 17.2483 15.0332 16.0987 15.6984 15.4335L16.7596 14.3722C17.1751 13.9567 17.8475 13.9567 18.2631 14.3722C18.6776 14.7867 18.6776 15.4612 18.2631 15.8757ZM15.3144 28.4921C13.1394 30.6671 9.61873 30.6675 7.44337 28.4921L4.05476 25.1035C1.87972 22.9285 1.87947 19.4078 4.05476 17.2325L10.4 10.8872L14.0769 14.451C13.2363 15.6 13.3345 17.2262 14.3718 18.2635C15.4189 19.3107 17.0514 19.3992 18.1961 18.5503L21.7261 22.0803L15.3144 28.4921ZM24.512 19.2945L23.0527 20.7538L19.5454 17.2465C20.5469 16.2449 20.6694 14.8798 20.1438 13.8181L23.5252 10.4367L24.512 11.4235C26.682 13.5936 26.682 17.1244 24.512 19.2945Z" fill="#2B398F"/>
<path d="M29.58 0C29.58 3.8363 29.5789 2.84705 29.58 3.01489C29.6226 6.04048 25.2868 7.61093 23.8013 8.05975L22.4499 6.70836C19.5485 3.80691 14.8274 3.80684 11.9258 6.70836L2.7282 15.9059C-0.179951 18.814 -0.180514 23.5215 2.7282 26.4301L6.1168 29.8187C9.02483 32.7268 13.7324 32.7273 16.641 29.8187L25.8386 20.6211C28.7401 17.7196 28.7401 12.9984 25.8386 10.097L25.2857 9.54403C27.5553 8.71412 31.5034 6.732 31.4561 2.9957V0L29.58 0ZM13.2523 8.03492C15.422 5.86526 18.953 5.86451 21.1234 8.03492L22.1986 9.11016L18.8182 12.4906C17.7521 11.9603 16.3937 12.0852 15.3787 13.1L11.7267 9.56054L13.2523 8.03492ZM18.2631 15.8757L17.2018 16.937C17.0011 17.1378 16.7341 17.2483 16.4501 17.2483C15.5052 17.2483 15.0332 16.0987 15.6984 15.4335L16.7596 14.3722C17.1751 13.9567 17.8475 13.9567 18.2631 14.3722C18.6776 14.7867 18.6776 15.4612 18.2631 15.8757ZM15.3144 28.4921C13.1394 30.6671 9.61873 30.6675 7.44337 28.4921L4.05476 25.1035C1.87972 22.9285 1.87947 19.4078 4.05476 17.2325L10.4 10.8872L14.0769 14.451C13.2363 15.6 13.3345 17.2262 14.3718 18.2635C15.4189 19.3107 17.0514 19.3992 18.1961 18.5503L21.7261 22.0803L15.3144 28.4921ZM24.512 19.2945L23.0527 20.7538L19.5454 17.2465C20.5469 16.2449 20.6694 14.8798 20.1438 13.8181L23.5252 10.4367L24.512 11.4235C26.682 13.5936 26.682 17.1244 24.512 19.2945Z" fill="#3749BB"/>
</svg>

<svg xmlns="http://www.w3.org/2000/svg" fill="none" viewBox="0 0 32 32"><path fill="#2B398F" d="M29.58 0c0 3.8363-.0011 2.847 0 3.0149.0426 3.0256-4.2932 4.596-5.7787 5.0449l-1.3514-1.3514c-2.9014-2.9015-7.6225-2.9016-10.5241 0l-9.1976 9.1975c-2.9082 2.9081-2.9087 7.6156 0 10.5242l3.3886 3.3886c2.908 2.9081 7.6156 2.9086 10.5242 0l9.1976-9.1976c2.9015-2.9015 2.9015-7.6227 0-10.5241l-.5529-.553c2.2696-.8299 6.2177-2.812 6.1704-6.5483V0H29.58ZM13.2523 8.035c2.1697-2.1697 5.7007-2.1705 7.8711 0l1.0752 1.0752-3.3804 3.3804c-1.0661-.5303-2.4245-.4054-3.4395.6094l-3.652-3.5395 1.5256-1.5256Zm5.0108 7.8407-1.0613 1.0613a1.0558 1.0558 0 0 1-.7517.3113c-.9449 0-1.4169-1.1496-.7517-1.8148l1.0612-1.0613a1.0626 1.0626 0 0 1 1.5035 0c.4145.4145.4145 1.089 0 1.5035Zm-2.9487 12.6164c-2.175 2.175-5.6957 2.1754-7.871 0l-3.3886-3.3886c-2.175-2.175-2.1753-5.6957 0-7.871L10.4 10.8872l3.6769 3.5638c-.8406 1.149-.7424 2.7752.2949 3.8125 1.0471 1.0472 2.6796 1.1357 3.8243.2868l3.53 3.53-6.4117 6.4118Zm9.1976-9.1976-1.4593 1.4593-3.5073-3.5073c1.0015-1.0016 1.124-2.3667.5984-3.4284l3.3814-3.3814.9868.9868c2.17 2.1701 2.17 5.7009 0 7.871Z"/><path fill="#3749BB" d="M29.58 0c0 3.8363-.0011 2.847 0 3.0149.0426 3.0256-4.2932 4.596-5.7787 5.0449l-1.3514-1.3514c-2.9014-2.9015-7.6225-2.9016-10.5241 0l-9.1976 9.1975c-2.9082 2.9081-2.9087 7.6156 0 10.5242l3.3886 3.3886c2.908 2.9081 7.6156 2.9086 10.5242 0l9.1976-9.1976c2.9015-2.9015 2.9015-7.6227 0-10.5241l-.5529-.553c2.2696-.8299 6.2177-2.812 6.1704-6.5483V0H29.58ZM13.2523 8.035c2.1697-2.1697 5.7007-2.1705 7.8711 0l1.0752 1.0752-3.3804 3.3804c-1.0661-.5303-2.4245-.4054-3.4395.6094l-3.652-3.5395 1.5256-1.5256Zm5.0108 7.8407-1.0613 1.0613a1.0558 1.0558 0 0 1-.7517.3113c-.9449 0-1.4169-1.1496-.7517-1.8148l1.0612-1.0613a1.0626 1.0626 0 0 1 1.5035 0c.4145.4145.4145 1.089 0 1.5035Zm-2.9487 12.6164c-2.175 2.175-5.6957 2.1754-7.871 0l-3.3886-3.3886c-2.175-2.175-2.1753-5.6957 0-7.871L10.4 10.8872l3.6769 3.5638c-.8406 1.149-.7424 2.7752.2949 3.8125 1.0471 1.0472 2.6796 1.1357 3.8243.2868l3.53 3.53-6.4117 6.4118Zm9.1976-9.1976-1.4593 1.4593-3.5073-3.5073c1.0015-1.0016 1.124-2.3667.5984-3.4284l3.3814-3.3814.9868.9868c2.17 2.1701 2.17 5.7009 0 7.871Z"/></svg>
